X: 1
T:Snouts and Ears
S:As played by Jimmy Blue on an LP
Z:Nigel Gatherer 2004-8-2
M: C|
L: 1/4
K:A
e | "A"aA A>B | "A"ce ab/a/ | "E7"ge e/f/g/a/ | be ef/g/ | "A"a/g/f/e/ "D"dc |
| "E7"Be e/f/e/d/ | "A"cA "E7"BA/B/ | "A"cA A :: B | "A"cA A>B | "A"ce ef/e/ |
| "Bm"dB B>c | "D"da "E7"a/f/e/d/ | "A"cA A>B | "A"ce ef/e/ | "Bm"dB "E7"a/f/e/d/ | "A"cA A :|
